X: 20961
M: 6/8
L: 1/8
K: F
V: 1 name="1"
z |\
aaa ggg | .f.e.d .c2z | BAB g2z | c=Bc a2z |\
aaa ggg | fed c2z | BAB b2g | f3- f2 H|]
K: Bb
(3F/F/F/) |\
d2F d2F | ded cdc | B2A B2d | c>BA/G/ FBc |\
d2F d2F | ded cdc | BAG BAG | d3- "^D.C."d2 |]


